X:799
T:Padey Oraffarty With Variations. JBut.795
T:Paddy O'Rafferty With Variations
B:John Buttrey MS, poss. Lincolnshire, early 19thC
S:https://buttreymilitarysocialtunes1800.wordpress.com/
Z:vmp.Mike Hicken 2019 www.village-music-project.org.uk
M:6/8
L:1/8
Q:3/8=100
K:G
DBB DAA|DBB AGA|DBB DAA|GAG GED|
DBB DAA|DBB AGA|GBd dBA|GAG GED:|
|:{GA}B2D DB,D|{GA}B2G AGA|{GA}B2D DB,D|GAG GED|
{GA}B2D DB,D|{GA}B2G AGA|GBd dBA|GAG GED:|
|:GBd GBd|GBd ecA|GBd GBd|GAG GED|
GBd GBd|GBd def|gdB ecA|GAG GED:|
|:BGE D2D|DcB AGA|BGE DDD|GAG GED|
BGE D2D|DcB AGA|GBd dBA|GAG GED:|
|:GDD ADD|BDD ADD|GDD ADD|GAG GED|
GDD ADD|BDD ADD|GBd dBA|GAG GED:|
|:{GA}B2G E2D|{GA}B2G AGA|{GA}B2G E2D|GAG GED|
{GA}B2G E2D|{GA}B2G AGA|GBd dBA|GAG GED:|
|:dBd ece|dcB A2G|dBd ece|g>ag ged|
dBd ece|fdf !fermata!g2f/e/|dec BcA|GAG GED:|

